packages/core/src/svgs/vcf.svg

<svg width="24" height="24" viewBox="0 0 24 24" fill="none" xmlns="http://www.w3.org/2000/svg">
<g clip-path="url(#clip0_31_20321)">
<path d="M0 0H24V24H0V0Z" fill="#FC671A"/>
<path d="M5.78564 10.2857H18.2142C18.1456 9.85714 18.0128 9.41571 17.7856 9H6.21422C5.98707 9.41571 5.85422 9.85714 5.78564 10.2857Z" fill="#0094D3"/>
<path d="M18.0301 10.2856H16.7144V15.8571C17.4858 14.3785 18.0772 12.2871 18.0772 10.7828C18.0753 10.6162 18.061 10.4501 18.0344 10.2856H18.0301Z" fill="#FBDE13"/>
<path d="M15.4287 17.7856C15.9147 17.1074 16.3447 16.3908 16.7144 15.6428V10.2856H15.4287V17.7856Z" fill="#E1221C"/>
<path d="M14.1427 19.0714C14.5884 18.6428 14.987 18.3685 15.4284 17.7856V10.2856H14.1427V19.0714ZM8.57129 17.5971C9.02557 18.1885 9.40272 18.7114 9.857 19.1356V10.2856H8.57129V17.5971Z" fill="#FBDE13"/>
<path d="M7.28564 15.4971C7.65681 16.2306 8.08678 16.9329 8.57136 17.5971V10.2856H7.28564V15.4971Z" fill="#E1221C"/>
<path d="M5.93555 11.2114C6.02983 12.6299 6.56126 14.1342 7.28555 15.4971V10.2856H5.96983C5.96137 10.3632 5.94994 10.4404 5.93555 10.5171V11.2114ZM11.1427 10.2856V20.1428C11.4298 20.2371 11.7684 20.5714 11.9998 20.5714C12.2741 20.5714 12.5141 20.2714 12.857 20.1428V10.2856H11.1427Z" fill="#FBDE13"/>
<path d="M12.8571 10.2856V20.1428C13.2686 19.9414 13.6671 19.5256 14.1429 19.0714V10.2856H12.8571ZM11.1429 10.2856H9.85715L9.82715 19.1356C10.3157 19.5899 10.7271 19.9628 11.1429 20.1428V10.2856Z" fill="#E1221C"/>
<path d="M11.9998 15.857C12.5681 15.857 13.1132 15.6312 13.515 15.2294C13.9169 14.8275 14.1426 14.2825 14.1426 13.7141C14.1426 13.1458 13.9169 12.6008 13.515 12.1989C13.1132 11.7971 12.5681 11.5713 11.9998 11.5713C11.4315 11.5713 10.8864 11.7971 10.4846 12.1989C10.0827 12.6008 9.85693 13.1458 9.85693 13.7141C9.85693 14.2825 10.0827 14.8275 10.4846 15.2294C10.8864 15.6312 11.4315 15.857 11.9998 15.857Z" fill="#A43316"/>
<path d="M12 15.7157C12.5308 15.7157 13.0398 15.5049 13.4152 15.1295C13.7905 14.7542 14.0014 14.2451 14.0014 13.7143C14.0014 13.1835 13.7905 12.6744 13.4152 12.2991C13.0398 11.9238 12.5308 11.7129 12 11.7129C11.4692 11.7129 10.9601 11.9238 10.5847 12.2991C10.2094 12.6744 9.99854 13.1835 9.99854 13.7143C9.99854 14.2451 10.2094 14.7542 10.5847 15.1295C10.9601 15.5049 11.4692 15.7157 12 15.7157Z" fill="#D48E09"/>
<path d="M13.5 13.8857V13.8429C13.5 13.0157 13.2214 12.5057 12.8914 12.3429C12.9054 12.3179 12.9243 12.296 12.9471 12.2786C13.0242 12.2143 13.1485 12.1629 13.2642 12.1629C13.2281 12.133 13.191 12.1044 13.1528 12.0772C13.05 12.1029 12.9514 12.1543 12.8914 12.2057C12.8558 12.2318 12.8265 12.2655 12.8057 12.3043C12.7559 12.2879 12.7038 12.2793 12.6514 12.2786C12.3857 12.2786 12.2314 12.5529 12.1542 12.6857L12.1242 12.7329C12.0814 12.7972 11.9442 12.8315 11.73 12.8315C11.5028 12.8315 11.4214 12.7886 11.4214 12.6429C11.4214 12.4115 11.7385 11.88 12.18 11.7215C12.1201 11.7159 12.0601 11.713 12 11.7129H11.9785C11.5842 11.9443 11.3271 12.4115 11.3271 12.6429C11.3271 12.6643 11.3271 12.6857 11.3357 12.7029C11.2585 12.7457 11.1 12.8272 10.9757 12.8272C10.6842 12.8272 10.4614 12.6043 10.3971 12.5186L10.3371 12.6C10.4442 12.7286 10.6842 12.9215 10.9757 12.9215C11.1128 12.9215 11.2757 12.8443 11.3657 12.7929C11.4471 12.9215 11.6314 12.9257 11.73 12.9257C11.9485 12.9257 12.09 12.8915 12.1714 12.8229C12.2734 12.9014 12.3565 13.0019 12.4143 13.1169C12.4722 13.2319 12.5034 13.3585 12.5057 13.4872C12.5057 13.7143 12.5057 13.8729 12.4414 13.9115C11.6218 14.1094 10.759 14.0185 9.99854 13.6543V13.7572C10.7692 14.1241 11.6438 14.2105 12.4714 14.0015C12.51 14.0786 12.5742 14.28 12.5742 14.4429C12.5742 14.6786 12.4842 14.9872 12.0557 15.1243C11.8844 15.0285 11.6942 14.9715 11.4985 14.9572C11.37 14.9572 11.2114 15.0129 11.1257 15.0772C11.0357 15 10.7614 14.7815 10.56 14.7815C10.4871 14.7815 10.3885 14.8072 10.3328 14.82L10.3885 14.9057C10.44 14.8886 10.5085 14.8757 10.56 14.8757C10.7228 14.8757 10.9714 15.0686 11.0657 15.15L11.0614 15.1757C11.0614 15.2443 11.1385 15.4286 11.25 15.57L11.4214 15.63L11.4257 15.6215C11.2952 15.5033 11.2014 15.35 11.1557 15.18C11.1771 15.1457 11.3314 15.0515 11.4985 15.0515C11.6657 15.0515 11.9057 15.15 12 15.2015C12.0042 15.3129 12.2057 15.5443 12.4157 15.6729L12.5485 15.6386H12.54C13.5085 15.1586 13.5042 14.2372 13.5 13.8815V13.8857ZM12.4371 15.5786C12.2932 15.487 12.1752 15.3602 12.0942 15.21C12.5657 15.0515 12.6685 14.7086 12.6685 14.4429C12.6685 14.2715 12.6 14.0357 12.5442 13.9372C12.5957 13.8515 12.6 13.6972 12.6 13.4872C12.6 13.08 12.33 12.8272 12.2271 12.7457L12.2357 12.7329C12.3042 12.6172 12.4414 12.3729 12.6514 12.3729C13.0157 12.3729 13.4057 12.8872 13.4057 13.8429V13.8857C13.4057 14.2286 13.4142 15.1329 12.4371 15.5786Z" fill="#A43316"/>
<path d="M14.0741 3.823C13.8727 3.823 13.6584 4.393 13.1013 4.393C12.7799 4.393 12.5956 4.153 12.5741 4.13585C12.5741 4.02443 12.7284 3.793 12.7284 3.57871C12.7284 3.523 12.707 3.42871 12.527 3.42871C12.3513 3.42871 12.2527 3.57014 12.2356 3.60014C12.2227 3.62157 12.1541 3.56585 11.9999 3.56585C11.8456 3.56585 11.777 3.62157 11.7641 3.59585C11.747 3.57014 11.6484 3.42871 11.4727 3.42871C11.297 3.42871 11.2756 3.523 11.2756 3.57871C11.2756 3.793 11.4256 4.02443 11.4256 4.13585C11.4041 4.153 11.2199 4.393 10.8984 4.393C10.3413 4.393 10.127 3.823 9.92557 3.823C9.30843 3.823 5.57129 6.41157 5.57129 10.5087C5.57129 15.4844 10.1741 20.5716 11.9999 20.5716C13.8256 20.5716 18.4284 15.4759 18.4284 10.5087C18.4284 6.41157 14.6913 3.823 14.0741 3.823ZM14.2241 4.11871C14.3313 4.11871 15.5999 5.54585 15.5141 6.68157C15.3513 5.22443 14.1984 4.20871 14.1984 4.14014C14.1984 4.123 14.2113 4.11871 14.2241 4.11871ZM9.83557 4.11871C9.84415 4.11871 9.857 4.123 9.857 4.14014C9.857 4.20871 8.70415 5.22443 8.54129 6.68157C8.45557 5.54585 9.72415 4.11871 9.83557 4.11871ZM11.9999 20.2587C10.1741 20.2587 5.92272 15.0301 5.92272 10.783C5.92272 9.19728 7.50843 7.123 8.40843 7.123C8.49415 7.123 8.60557 7.14871 8.60557 7.14871C8.60557 7.14871 8.96129 6.84871 9.46272 6.84871C10.4056 6.84871 10.8984 7.75728 10.8984 8.08728C10.8984 8.25871 10.8384 8.22442 10.8384 8.31871C10.8384 8.37442 10.9156 8.45157 10.967 8.45157C11.0356 8.45157 11.2584 8.23728 11.3056 8.13871C11.6184 8.13871 11.9141 8.49014 11.9999 8.76443C12.0856 8.49014 12.3813 8.13871 12.6984 8.13871C12.7413 8.23728 12.9641 8.45157 13.0327 8.45157C13.0841 8.45157 13.1613 8.37442 13.1613 8.323C13.1613 8.22442 13.1013 8.25443 13.1013 8.08728C13.1013 7.75728 13.5941 6.84871 14.537 6.84871C15.0384 6.84871 15.3941 7.14871 15.3941 7.14871C15.3941 7.14871 15.5056 7.123 15.5913 7.123C16.4913 7.123 18.077 9.19728 18.077 10.783C18.077 15.0301 13.8256 20.2587 11.9999 20.2587Z" fill="black"/>
<path d="M6.63428 9.24023L6.98999 10.2045H7.21713L7.57285 9.24023H7.33285C7.33285 9.24023 7.11856 9.93881 7.10999 9.93881C7.10142 9.93881 6.89571 9.24023 6.89571 9.24023H6.63856H6.63428ZM8.25856 10.2002H8.50713L8.12142 9.24023H7.88999L7.50428 10.2045H7.74428L7.82571 9.99023H8.18142L8.25856 10.2045V10.2002ZM7.88999 9.82309L8.00999 9.50166L8.12142 9.82309H7.88999ZM13.9714 10.2002H14.22L13.8343 9.24023H13.6028L13.2214 10.2045H13.4614L13.5386 9.99023H13.8986L13.9757 10.2045L13.9714 10.2002ZM13.6028 9.82309L13.7228 9.50166L13.8386 9.82309H13.6028ZM8.62713 9.24023V10.2045H9.38142V9.99881H8.86713V9.24023H8.62713ZM9.58285 9.24023V10.2045H10.3328V10.0031H9.80142V9.78452H10.26V9.61738H9.80142V9.43309H10.3328V9.24023H9.58285ZM16.3971 9.24023V10.2045H16.6157V9.78452H17.0743V9.61738H16.6157V9.43309H17.1428V9.24023H16.3928H16.3971ZM10.5986 9.24023V10.2045H10.8V9.57452L11.2114 10.2045H11.4471V9.24023H11.22V9.89595L10.83 9.24023H10.5986ZM12.3514 9.58309H12.6C12.6 9.38166 12.3686 9.24023 12.1457 9.24023C11.8286 9.24023 11.6657 9.52309 11.6657 9.75023C11.6657 10.0288 11.8457 10.2045 12.1286 10.2045C12.4628 10.2045 12.6 10.0159 12.6 9.85309H12.3428C12.3428 9.90881 12.3171 10.0502 12.15 10.0502C11.9786 10.0502 11.8928 9.90452 11.8928 9.75023C11.8928 9.59166 11.9786 9.41595 12.15 9.41595C12.3 9.41595 12.3514 9.49309 12.3514 9.58738V9.58309ZM15.4328 9.58309H15.6857C15.6857 9.38166 15.4543 9.24023 15.2314 9.24023C14.9143 9.24023 14.7514 9.52309 14.7514 9.75023C14.7514 10.0288 14.9314 10.2045 15.2143 10.2045C15.5486 10.2045 15.6857 10.0159 15.6857 9.85309H15.4286C15.4286 9.90881 15.4028 10.0502 15.2357 10.0502C15.0643 10.0502 14.9786 9.90452 14.9786 9.75023C14.9786 9.59166 15.0643 9.41595 15.2357 9.41595C15.3814 9.41595 15.4328 9.49309 15.4328 9.58738V9.58309ZM13.0671 9.24023H12.8357V10.2045H13.0671V9.24023ZM16.1486 9.97738H15.9043V10.2045H16.1486V9.97738ZM17.3786 9.97738H17.1343V10.2045H17.3786V9.97738Z" fill="#F4F2F2"/>
</g>
<defs>
<clipPath id="clip0_31_20321">
<rect width="24" height="24" fill="white"/>
</clipPath>
</defs>
</svg>

<svg xmlns="http://www.w3.org/2000/svg" width="24" height="24" fill="none" viewBox="0 0 24 24"><g clip-path="url(#a)"><path fill="#FC671A" d="M0 0h24v24H0z"/><path fill="#0094D3" d="M5.786 10.286h12.428A4 4 0 0 0 17.786 9H6.214a4 4 0 0 0-.428 1.286"/><path fill="#FBDE13" d="M18.03 10.286h-1.316v5.571c.772-1.478 1.363-3.57 1.363-5.074a3.4 3.4 0 0 0-.043-.497z"/><path fill="#E1221C" d="M15.429 17.786q.73-1.02 1.285-2.143v-5.357H15.43z"/><path fill="#FBDE13" d="M14.143 19.071c.445-.428.844-.703 1.285-1.285v-7.5h-1.285zM8.57 17.597c.455.591.832 1.114 1.286 1.539v-8.85H8.571z"/><path fill="#E1221C" d="M7.286 15.497q.556 1.102 1.285 2.1v-7.311H7.286z"/><path fill="#FBDE13" d="M5.936 11.211c.094 1.419.625 2.923 1.35 4.286v-5.211H5.97q-.013.115-.034.231zm5.207-.925v9.857c.287.094.625.428.857.428.274 0 .514-.3.857-.428v-9.857z"/><path fill="#E1221C" d="M12.857 10.286v9.857c.412-.202.81-.617 1.286-1.072v-8.785zm-1.714 0H9.857l-.03 8.85c.489.454.9.827 1.316 1.007z"/><path fill="#A43316" d="M12 15.857a2.143 2.143 0 1 0 0-4.286 2.143 2.143 0 0 0 0 4.286"/><path fill="#D48E09" d="M12 15.716a2.001 2.001 0 1 0 0-4.003 2.001 2.001 0 0 0 0 4.003"/><path fill="#A43316" d="M13.5 13.886v-.043c0-.827-.279-1.337-.609-1.5a.2.2 0 0 1 .056-.064.53.53 0 0 1 .317-.116 2 2 0 0 0-.111-.086.7.7 0 0 0-.262.129.3.3 0 0 0-.085.098.5.5 0 0 0-.155-.025c-.265 0-.42.274-.497.407l-.03.047c-.043.064-.18.098-.394.098-.227 0-.309-.042-.309-.188 0-.232.318-.763.759-.921a2 2 0 0 0-.18-.01h-.021c-.395.232-.652.7-.652.93 0 .022 0 .044.009.06-.078.044-.236.125-.36.125-.292 0-.515-.223-.579-.308l-.06.081c.107.129.347.322.639.322.137 0 .3-.078.39-.13.081.13.265.134.364.134.218 0 .36-.034.441-.103a.86.86 0 0 1 .335.664c0 .227 0 .386-.065.425A3.66 3.66 0 0 1 10 13.654v.103c.77.367 1.645.454 2.472.245.039.077.103.278.103.44 0 .237-.09.545-.518.682a1.34 1.34 0 0 0-.557-.167.7.7 0 0 0-.373.12c-.09-.077-.365-.296-.566-.296-.073 0-.171.026-.227.039l.056.086a.6.6 0 0 1 .171-.03c.163 0 .411.193.506.274l-.005.026c0 .068.078.253.189.394l.171.06.005-.009a.9.9 0 0 1-.27-.441c.021-.034.175-.128.342-.128s.408.098.502.15c.004.11.206.342.416.47l.133-.033h-.009c.969-.48.964-1.402.96-1.757zm-1.063 1.693a1 1 0 0 1-.343-.369c.472-.159.575-.501.575-.767 0-.171-.069-.407-.125-.506.052-.085.056-.24.056-.45 0-.407-.27-.66-.373-.741l.009-.013c.068-.116.205-.36.415-.36.365 0 .755.514.755 1.47v.043c0 .343.008 1.247-.969 1.693"/><path fill="#000" d="M14.074 3.823c-.201 0-.416.57-.973.57-.321 0-.505-.24-.527-.257 0-.112.154-.343.154-.557 0-.056-.021-.15-.201-.15a.36.36 0 0 0-.291.171c-.013.022-.082-.034-.236-.034s-.223.056-.236.03c-.017-.026-.116-.167-.291-.167-.176 0-.197.094-.197.15 0 .214.15.445.15.557-.022.017-.206.257-.528.257-.557 0-.771-.57-.972-.57-.618 0-4.355 2.589-4.355 6.686 0 4.975 4.603 10.063 6.429 10.063s6.428-5.096 6.428-10.063c0-4.097-3.737-6.686-4.354-6.686m.15.296c.107 0 1.376 1.427 1.29 2.563-.163-1.458-1.316-2.473-1.316-2.542 0-.017.013-.021.026-.021m-4.388 0c.008 0 .021.004.021.021 0 .069-1.153 1.084-1.316 2.542-.085-1.136 1.183-2.563 1.295-2.563M12 20.259c-1.826 0-6.077-5.229-6.077-9.476 0-1.586 1.585-3.66 2.485-3.66.086 0 .198.026.198.026s.355-.3.857-.3c.943 0 1.435.908 1.435 1.238 0 .172-.06.137-.06.232 0 .055.078.133.129.133.069 0 .291-.215.339-.313.312 0 .608.351.694.625.086-.274.381-.625.698-.625.043.098.266.313.335.313.051 0 .128-.078.128-.129 0-.099-.06-.069-.06-.236 0-.33.493-1.238 1.436-1.238.501 0 .857.3.857.3s.112-.026.197-.026c.9 0 2.486 2.074 2.486 3.66 0 4.247-4.251 9.476-6.077 9.476"/><path fill="#F4F2F2" d="m6.634 9.24.356.964h.227l.356-.964h-.24s-.214.699-.223.699-.214-.699-.214-.699h-.262m1.625.96h.248l-.386-.96H7.89l-.386.964h.24l.082-.214h.355l.078.214zm-.369-.377.12-.321.111.321zm6.081.377h.249l-.386-.96h-.231l-.382.964h.24l.078-.214h.36l.077.214zm-.368-.377.12-.321.116.321zM8.627 9.24v.964h.754V10h-.514V9.24zm.956 0v.964h.75v-.2H9.8v-.22h.459v-.167h-.459v-.184h.532V9.24zm6.814 0v.964h.219v-.42h.458v-.167h-.458v-.184h.527V9.24h-.75zm-5.798 0v.964h.201v-.63l.411.63h.236V9.24h-.227v.656l-.39-.656zm1.752.343h.249c0-.201-.231-.343-.454-.343-.317 0-.48.283-.48.51 0 .279.18.454.463.454.334 0 .471-.188.471-.35h-.257c0 .055-.026.196-.193.196-.171 0-.257-.145-.257-.3 0-.158.086-.334.257-.334.15 0 .201.077.201.171zm3.082 0h.253c0-.201-.232-.343-.455-.343-.317 0-.48.283-.48.51 0 .279.18.454.463.454.335 0 .472-.188.472-.35h-.257c0 .055-.026.196-.193.196-.172 0-.257-.145-.257-.3 0-.158.085-.334.257-.334.145 0 .197.077.197.171zm-2.366-.343h-.231v.964h.231zm3.082.737h-.245v.227h.245zm1.23 0h-.245v.227h.245z"/></g><defs><clipPath id="a"><path fill="#fff" d="M0 0h24v24H0z"/></clipPath></defs></svg>
